X:1
T:Advance and Retire Jig
C:Paul Rosen
S:Copyright 2004, Paul Rosen
M:6/8
L:1/8
Q:C3=112
R:English
K:D
A/2B/2|:"D"d2AB2A|FGFA2A/2B/2|d2AB2A|FGF"A"E2A/2B/2|
"D"d2AB2A|"Em"Bcde3|"A"g2e fec|[1"D"d4-dA/2B/2:|[2"D"d4-df/2g/2|
|:"D"a2f"G"g2b|"D"agf"A"a2f/2g/2|"D"a2f"Em"g2e|"G7"fed"A"e2f/2g/2|
"D"a2f"Em"g2e|"D"fga"G"b3|"A"g2e fec|[1"D"d4-df/2/g/2:|[2"D"d4-dA/2B/2|
